Dominus_Dark_Funeral/22/apps/conduit.svg

<svg xmlns="http://www.w3.org/2000/svg" width="24" height="24" viewBox="0 0 6.35 6.35"><defs><linearGradient id="b"><stop offset="0"/><stop offset="1" stop-color="#fff" stop-opacity=".95"/></linearGradient><linearGradient id="a"><stop offset="0" stop-color="#000007"/><stop offset="1" stop-opacity="0"/></linearGradient></defs><path d="M3.17.59a.74.74 0 0 0 0 1.47.74.74 0 0 0 .71-.9 1.36 1.36 0 0 1 1.38 2.26l-.49-.73-.3 1.4 1.43.3-.38-.58A1.81 1.81 0 0 0 4.32.64c-.23 0-.45.04-.67.13a.74.74 0 0 0-.48-.18zM.44 1.97l.38.58a1.81 1.81 0 0 0 1.86 3.03.74.74 0 0 0 .48.18.74.74 0 0 0 .01-1.47.74.74 0 0 0-.72.9 1.36 1.36 0 0 1-1.38-2.26l.5.74.3-1.42z" fill="#e6e6e6"/></svg>

<?xml version="1.0" encoding="UTF-8" standalone="no"?>
<svg
   xmlns:dc="http://purl.org/dc/elements/1.1/"
   xmlns:cc="http://creativecommons.org/ns#"
   xmlns:rdf="http://www.w3.org/1999/02/22-rdf-syntax-ns#"
   xmlns:svg="http://www.w3.org/2000/svg"
   xmlns="http://www.w3.org/2000/svg"
   xmlns:sodipodi="http://sodipodi.sourceforge.net/DTD/sodipodi-0.dtd"
   xmlns:inkscape="http://www.inkscape.org/namespaces/inkscape"
   width="24"
   height="24"
   viewBox="0 0 6.35 6.35"
   version="1.1"
   id="svg16"
   sodipodi:docname="conduit.svg"
   inkscape:version="0.92.4 (5da689c313, 2019-01-14)">
  <metadata
     id="metadata20">
    <rdf:RDF>
      <cc:Work
         rdf:about="">
        <dc:format>image/svg+xml</dc:format>
        <dc:type
           rdf:resource="http://purl.org/dc/dcmitype/StillImage" />
        <dc:title></dc:title>
      </cc:Work>
    </rdf:RDF>
  </metadata>
  <sodipodi:namedview
     pagecolor="#ffffff"
     bordercolor="#666666"
     borderopacity="1"
     objecttolerance="10"
     gridtolerance="10"
     guidetolerance="10"
     inkscape:pageopacity="0"
     inkscape:pageshadow="2"
     inkscape:window-width="1142"
     inkscape:window-height="480"
     id="namedview18"
     showgrid="false"
     inkscape:zoom="9.8333333"
     inkscape:cx="1.2711864"
     inkscape:cy="12"
     inkscape:window-x="0"
     inkscape:window-y="25"
     inkscape:window-maximized="0"
     inkscape:current-layer="svg16" />
  <defs
     id="defs12">
    <linearGradient
       id="b">
      <stop
         offset="0"
         id="stop2" />
      <stop
         offset="1"
         stop-color="#fff"
         stop-opacity=".95"
         id="stop4" />
    </linearGradient>
    <linearGradient
       id="a">
      <stop
         offset="0"
         stop-color="#000007"
         id="stop7" />
      <stop
         offset="1"
         stop-opacity="0"
         id="stop9" />
    </linearGradient>
  </defs>
  <path
     d="m 3.17,0.59 a 0.74,0.74 0 0 0 0,1.47 0.74,0.74 0 0 0 0.71,-0.9 1.36,1.36 0 0 1 1.38,2.26 L 4.77,2.69 4.47,4.09 5.9,4.39 5.52,3.81 A 1.81,1.81 0 0 0 4.32,0.64 C 4.09,0.64 3.87,0.68 3.65,0.77 A 0.74,0.74 0 0 0 3.17,0.59 Z M 0.44,1.97 0.82,2.55 A 1.81,1.81 0 0 0 2.68,5.58 0.74,0.74 0 0 0 3.16,5.76 0.74,0.74 0 0 0 3.17,4.29 0.74,0.74 0 0 0 2.45,5.19 1.36,1.36 0 0 1 1.07,2.93 l 0.5,0.74 0.3,-1.42 z"
     id="path14"
     inkscape:connector-curvature="0"
     style="fill:#e6e6e6" />
</svg>
